images/DODO.svg

<svg height="250" viewBox="0 0 250 250" width="250" xmlns="http://www.w3.org/2000/svg" xmlns:xlink="http://www.w3.org/1999/xlink"><linearGradient id="a" gradientUnits="userSpaceOnUse" x1="11.29575" x2="250" y1="-10.932" y2="250"><stop offset="0" stop-color="#fffc2c"/><stop offset="1" stop-color="#efe806"/></linearGradient><g fill-rule="evenodd"><path d="m250 125c0 69.035156-55.964844 125-125 125s-125-55.964844-125-125 55.964844-125 125-125 125 55.964844 125 125zm0 0" fill="url(#a)"/><path d="m127.167969 40c5.675781 0 10.277343 8.386719 10.277343 18.726562 0 .25-.003906.496094-.007812.746094 3.046875-3.730468 6.601562-5.578125 9.316406-4.398437 2.757813 1.199219 3.929688 5.230469 3.371094 10.191406-.136719 2.351563-.703125 4.933594-1.726562 7.519531-.59375 1.5-1.300782 2.886719-2.078126 4.136719 40.441407 9.257813 69.125 43.519531 68.675782 103.078125h-24.617188c.382813-50.480469-28.042968-75.40625-65.238281-76.191406-40.507813-.851563-62.929687 26.957031-65.523437 76.191406h-24.617188c3.152344-59.804688 28.207031-96.246094 72.214844-103.410156-.703125-1.050782-2-3.179688-2.578125-4.421875-3.449219-7.386719-2.960938-14.992188 1.09375-16.988281 3.242187-1.597657 7.78125.878906 11.234375 5.714843-.046875-.710937-.070313-1.433593-.070313-2.167969 0-10.339843 4.597657-18.726562 10.273438-18.726562zm-22.476563 92.875c2.964844 0 5.371094 2.753906 5.371094 6.148438v15.109374c0 3.398438-2.40625 6.152344-5.371094 6.152344-2.96875 0-5.371094-2.753906-5.371094-6.152344v-15.109374c0-3.394532 2.402344-6.148438 5.371094-6.148438zm42.972656 0c2.964844 0 5.371094 2.753906 5.371094 6.148438v15.109374c0 3.398438-2.40625 6.152344-5.371094 6.152344-2.96875 0-5.371093-2.753906-5.371093-6.152344v-15.109374c0-3.394532 2.402343-6.148438 5.371093-6.148438zm0 0"/></g></svg>

<?xml version="1.0" encoding="UTF-8"?>
<svg xmlns="http://www.w3.org/2000/svg" xmlns:xlink="http://www.w3.org/1999/xlink" width="250px" height="250px" viewBox="0 0 250 250" version="1.1">
<defs>
<linearGradient id="linear0" gradientUnits="userSpaceOnUse" x1="0.0451827" y1="-0.0437276" x2="1" y2="1" gradientTransform="matrix(250,0,0,250,0,0)">
<stop offset="0" style="stop-color:rgb(100%,98.823529%,17.254902%);stop-opacity:1;"/>
<stop offset="1" style="stop-color:rgb(93.725491%,90.980393%,2.352941%);stop-opacity:1;"/>
</linearGradient>
</defs>
<g id="surface1">
<path style=" stroke:none;fill-rule:evenodd;fill:url(#linear0);" d="M 250 125 C 250 194.035156 194.035156 250 125 250 C 55.964844 250 0 194.035156 0 125 C 0 55.964844 55.964844 0 125 0 C 194.035156 0 250 55.964844 250 125 Z M 250 125 "/>
<path style=" stroke:none;fill-rule:evenodd;fill:rgb(0%,0%,0%);fill-opacity:1;" d="M 127.167969 40 C 132.84375 40 137.445312 48.386719 137.445312 58.726562 C 137.445312 58.976562 137.441406 59.222656 137.4375 59.472656 C 140.484375 55.742188 144.039062 53.894531 146.753906 55.074219 C 149.511719 56.273438 150.683594 60.304688 150.125 65.265625 C 149.988281 67.617188 149.421875 70.199219 148.398438 72.785156 C 147.804688 74.285156 147.097656 75.671875 146.320312 76.921875 C 186.761719 86.179688 215.445312 120.441406 214.996094 180 L 190.378906 180 C 190.761719 129.519531 162.335938 104.59375 125.140625 103.808594 C 84.632812 102.957031 62.210938 130.765625 59.617188 180 L 35 180 C 38.152344 120.195312 63.207031 83.753906 107.214844 76.589844 C 106.511719 75.539062 105.214844 73.410156 104.636719 72.167969 C 101.1875 64.78125 101.675781 57.175781 105.730469 55.179688 C 108.972656 53.582031 113.511719 56.058594 116.964844 60.894531 C 116.917969 60.183594 116.894531 59.460938 116.894531 58.726562 C 116.894531 48.386719 121.492188 40 127.167969 40 Z M 104.691406 132.875 C 107.65625 132.875 110.0625 135.628906 110.0625 139.023438 L 110.0625 154.132812 C 110.0625 157.53125 107.65625 160.285156 104.691406 160.285156 C 101.722656 160.285156 99.320312 157.53125 99.320312 154.132812 L 99.320312 139.023438 C 99.320312 135.628906 101.722656 132.875 104.691406 132.875 Z M 147.664062 132.875 C 150.628906 132.875 153.035156 135.628906 153.035156 139.023438 L 153.035156 154.132812 C 153.035156 157.53125 150.628906 160.285156 147.664062 160.285156 C 144.695312 160.285156 142.292969 157.53125 142.292969 154.132812 L 142.292969 139.023438 C 142.292969 135.628906 144.695312 132.875 147.664062 132.875 Z M 147.664062 132.875 "/>
</g>
</svg>
